X: 35154
T: Ronde De Loudeac
R: barndance
M: 4/4
K: Edorian
|:e/e/e fe dc B^A|Bg fe d2 e2|Be de dc B^A|1 Bg fe d2 e2:|2 Bg fe d2 ee||
|:ff ef b2- ba|ga gf e2 d2|=c/d/e fe d^c B2-|1 Bg fe d2 ee:|2 Bg fe d2 e2||

